icons/actions/22/debug-execute-to-cursor.svg

<svg xmlns="http://www.w3.org/2000/svg" viewBox="0 0 22 22">
  <defs id="defs3051">
    <style type="text/css" id="current-color-scheme">
      .ColorScheme-Text {
        color:#4d4d4d;
      }
      </style>
  </defs>
 <path 
     style="fill:currentColor;fill-opacity:1;stroke:none" 
	 d="m14 3v1h2v14h-2v1h5v-1h-2v-14h2v-1h-5m-11 4v3 2 3h1v-3h4v2l4-3-4-3v2h-4v-3h-1"
	 class="ColorScheme-Text"
     />
</svg>

<?xml version="1.0"?>
<!-- Created with Inkscape (http://www.inkscape.org/) -->
<svg xmlns:dc="http://purl.org/dc/elements/1.1/" xmlns:cc="http://creativecommons.org/ns#" xmlns:rdf="http://www.w3.org/1999/02/22-rdf-syntax-ns#" xmlns:svg="http://www.w3.org/2000/svg" xmlns="http://www.w3.org/2000/svg" xmlns:sodipodi="http://sodipodi.sourceforge.net/DTD/sodipodi-0.dtd" xmlns:inkscape="http://www.inkscape.org/namespaces/inkscape" width="22" height="22" id="svg3813" version="1.1" inkscape:version="0.48+devel r" sodipodi:docname="debug-execute-to-cursor.svg">
  <defs id="defs3815">
    <style type="text/css" id="current-color-scheme">
      .ColorScheme-Text {
        color:#4d4d4d;
      }
      .ColorScheme-Background {
        color:#eff0f1;
      }
      .ColorScheme-Highlight {
        color:#3daee9;
      }
      .ColorScheme-ViewText {
        color:#31363b;
      }
      .ColorScheme-ViewBackground {
        color:#fcfcfc;
      }
      .ColorScheme-ViewHover {
        color:#93cee9;
      }
      .ColorScheme-ViewFocus{
        color:#3daee9;
      }
      .ColorScheme-ButtonText {
        color:#31363b;
      }
      .ColorScheme-ButtonBackground {
        color:#eff0f1;
      }
      .ColorScheme-ButtonHover {
        color:#93cee9;
      }
      .ColorScheme-ButtonFocus{
        color:#3daee9;
      }
      </style>
  </defs>
  <sodipodi:namedview id="base" pagecolor="#ffffff" bordercolor="#666666" borderopacity="1.0" inkscape:pageopacity="0.0" inkscape:pageshadow="2" inkscape:zoom="18.67774" inkscape:cx="11.540525" inkscape:cy="7.6693908" inkscape:document-units="px" inkscape:current-layer="layer1" showgrid="true" fit-margin-top="0" fit-margin-left="0" fit-margin-right="0" fit-margin-bottom="0" inkscape:window-width="1366" inkscape:window-height="668" inkscape:window-x="-2" inkscape:window-y="23" inkscape:window-maximized="1" inkscape:showpageshadow="false" showguides="true">
    <inkscape:grid type="xygrid" id="grid4109"/>
    <sodipodi:guide position="2.0000072,19.999993" orientation="18,0" id="guide4115"/>
    <sodipodi:guide position="2.0000072,1.9999929" orientation="0,18" id="guide4117"/>
    <sodipodi:guide position="20.000007,1.9999929" orientation="-18,0" id="guide4119"/>
    <sodipodi:guide position="20.000007,19.999993" orientation="0,-18" id="guide4121"/>
    <sodipodi:guide position="3.0000072,18.999993" orientation="16,0" id="guide4123"/>
    <sodipodi:guide position="3.0000072,2.9999929" orientation="0,16" id="guide4125"/>
    <sodipodi:guide position="19.000007,2.9999929" orientation="-16,0" id="guide4127"/>
    <sodipodi:guide position="19.000007,18.999993" orientation="0,-16" id="guide4129"/>
  </sodipodi:namedview>
  <metadata id="metadata3818">
    <rdf:RDF>
      <cc:Work rdf:about="">
        <dc:format>image/svg+xml</dc:format>
        <dc:type rdf:resource="http://purl.org/dc/dcmitype/StillImage"/>
        <dc:title/>
      </cc:Work>
    </rdf:RDF>
  </metadata>
  <g inkscape:label="Capa 1" inkscape:groupmode="layer" id="layer1" transform="translate(-378.85714,-540.07647)">
    <path style="opacity:1;fill:currentColor;fill-opacity:1;stroke:none" d="M 14 3 L 14 4 L 16 4 L 16 18 L 14 18 L 14 19 L 19 19 L 19 18 L 17 18 L 17 4 L 19 4 L 19 3 L 14 3 z M 3 7 L 3 10 L 3 12 L 3 15 L 4 15 L 4 12 L 8 12 L 8 14 L 12 11 L 8 8 L 8 10 L 4 10 L 4 7 L 3 7 z " transform="translate(378.85714,540.07647)" id="path4128" class="ColorScheme-Text"/>
  </g>
</svg>
